X: 86
T:Jota de Arbo
M:3/4
L:1/8
Q:250
C:Trad
S:Rep. Euxemes de Arbo
R:Jota
K:C
CDEG | c2G2E2| C"F."G CECE | c2G2E2 | D2 B,DB,D | B,2 G2F2| 
D2 B,DB,D | B,2 GF ED |1 C"F."G :|2 C6- |:C"F."G C2D2 | E3"F."c E2 | D2C
2D2 | 
E2DC B,2- | B,2 D2E2 | F3 "F."c F2 | E2D2E2 F2ED "     3 veces"C2- :| C6
-| C"F."G

